X:1
T:Title
%%score { 1 | ( 2 3 ) }
L:1/8
M:3/4
K:Ab
V:1 treble nm="Grand Piano"
V:2 bass 
V:3 bass 
V:1
 z2 z2[Q:1/4=100] [CE]>[CE] | [CE]3 [CE] [CF]>[CA] | [CA]4 [CA]>[DB] | [Ec]3 [Ec] [Dc]2 | %4
[M:2/4] [DB]4 |[M:1/4] [CE]>[CE] |[M:3/4] [CE]3 [CE] [CF]>[CA] | [CA]4 [EA]>[FB] | c3 c B2 | %9
[M:2/4] [CA]4 |[M:1/4] A>B |[M:3/4] c3 B [CA]>[DB] | c4 c>c | e3 A G>A |[M:2/4] c2 B2 | %15
[M:1/4] [CE]>[CE] |[M:3/4] [CE]3 [CE] [CF]>[CA] | [CA]4 [EA]>[FB] | c3 c B2 |[M:2/4] [CA]4 | %20
[M:1/4] [CA]>[CA] |[M:3/4] [EB]3 [Ec] [DB]2 | [CA]4 A>B | c3 e c2 |[M:2/4] B4 |[M:1/4] [CE]>[CE] | %26
[M:3/4] [CE]3 [CE] [CF]>[CA] | [CA]4 [EA]>[FB] | c3 c B2 |[M:6/4] .[CA]6 z6 |] %30
V:2
 z2 z2 [A,,A,]>[A,,A,] | [A,,A,]3 [A,,A,] [A,,A,]>[A,,A,] | [A,,A,]4 [A,,A,]>[A,,A,] | %3
 [A,,A,]3 [A,,A,] [E,G,]2 |[M:2/4] [E,G,]4 |[M:1/4] [A,,A,]>[A,,A,] | %6
[M:3/4] [A,,A,]3 [A,,A,] [A,,A,]>[A,,A,] | [A,,A,]4 [C,A,]>[D,A,] | [E,A,E]3 [E,A,E] [E,G,D]2 | %9
[M:2/4] [A,,A,]4 |[M:1/4] [A,C]>[A,D] |[M:3/4] [A,E]3 [A,D] [A,,A,]>[A,,A,] | [A,E]4 [A,E]>[A,E] | %13
 [A,CE]3 [A,CE] [B,DE]>[A,CE] |[M:2/4] [DE]2 D2 |[M:1/4] [A,,A,]>[A,,A,] | %16
[M:3/4] [A,,A,]3 [A,,A,] [A,,A,]>[A,,A,] | [A,,A,]4 [C,A,]>[D,A,] | [E,A,E]3 [E,A,E] [E,G,D]2 | %19
[M:2/4] [A,,A,]4 |[M:1/4] [A,,A,]>[A,,A,] |[M:3/4] [E,G,]3 [E,G,] [A,,A,]2 | [A,,A,]4 [A,C]>[A,D] | %23
 [A,E]3 [A,CE] [E,DE]2 |[M:2/4] [E,D]4 |[M:1/4] [A,,A,]>[A,,A,] | %26
[M:3/4] [A,,A,]3 [A,,A,] [A,,A,]>[A,,A,] | [A,,A,]4 [C,A,]>[D,A,] | [E,A,E]3 [E,A,E] [E,G,D]2 | %29
[M:6/4] .[A,,A,]6 z6 |] %30
V:3
 x6 | x6 | x6 | x6 |[M:2/4] x4 |[M:1/4] x2 |[M:3/4] x6 | x6 | x6 |[M:2/4] x4 |[M:1/4] x2 | %11
[M:3/4] x6 | x6 | x6 |[M:2/4] E,4 |[M:1/4] x2 |[M:3/4] x6 | x6 | x6 |[M:2/4] x4 |[M:1/4] x2 | %21
[M:3/4] x6 | x6 | x6 |[M:2/4] x4 |[M:1/4] x2 |[M:3/4] x6 | x6 | x6 |[M:6/4] x12 |] %30

